; generated by PrusaSlicer 2.3.3 on 2022-04-01 at 20:33:50 UTC

; 

; external perimeters extrusion width = 0.45mm
; perimeters extrusion width = 0.45mm
; infill extrusion width = 0.45mm
; solid infill extrusion width = 0.45mm
; top infill extrusion width = 0.40mm
; first layer extrusion width = 0.42mm

M73 P0 R62
M73 Q0 S61
M201 X1000 Y1000 Z200 E5000 ; sets maximum accelerations, mm/sec^2
M203 X200 Y200 Z12 E120 ; sets maximum feedrates, mm/sec
M204 P1250 R1250 T1250 ; sets acceleration (P, T) and retract acceleration (R), mm/sec^2
M205 X8.00 Y8.00 Z0.40 E4.50 ; sets the jerk limits, mm/sec
M205 S0 T0 ; sets the minimum extruding and travel feed rate, mm/sec
M107
;TYPE:Custom
M862.3 P "MK3S" ; printer model check
M862.1 P0.4 ; nozzle diameter check
M115 U3.9.3 ; tell printer latest fw version
G90 ; use absolute coordinates
M83 ; extruder relative mode
M104 S215 ; set extruder temp
M140 S60 ; set bed temp
M190 S60 ; wait for bed temp
M109 S215 ; wait for extruder temp
G28 W ; home all without mesh bed level
G80 ; mesh bed leveling
G1 Y-3.0 F1000.0 ; go outside print area
G92 E0.0
G1 X60.0 E9.0 F1000.0 ; intro line
M73 P0 R61
G1 X100.0 E12.5 F1000.0 ; intro line
G92 E0.0
M221 S95

; Don't change E values below. Excessive value can damage the printer.

M907 E538 ; set extruder motor current
G21 ; set units to millimeters
G90 ; use absolute coordinates
M83 ; use relative distances for extrusion
M900 K0.05 ; Filament gcode LA 1.5
M900 K30 ; Filament gcode LA 1.0
;LAYER_CHANGE
;Z:0.2
;HEIGHT:0.2
;BEFORE_LAYER_CHANGE
G92 E0.0
;0.2


G1 E-0.80000 F2100.000
G1 Z0.400 F10800.000
;AFTER_LAYER_CHANGE
;0.2
G1 X67.284 Y74.860
G1 Z0.200
G1 E0.80000 F2100.000
M204 S1000
;TYPE:Skirt
;WIDTH:0.42
G1 F1200.000
G1 X68.158 Y74.692 E0.02790
G1 X172.167 Y74.692 E3.26112
G1 X173.065 Y74.870 E0.02872
G1 X173.827 Y75.372 E0.02860
G1 X174.345 Y76.127 E0.02872
G1 X174.540 Y77.022 E0.02872
G1 X174.538 Y116.157 E1.22703
G1 X174.414 Y116.832 E0.02154
G1 X174.104 Y117.441 E0.02142
G1 X173.634 Y117.937 E0.02142
G1 X173.042 Y118.278 E0.02142
G1 X172.168 Y118.446 E0.02790
G1 X68.132 Y118.446 E3.26196
G1 X67.443 Y118.335 E0.02190
G1 X66.816 Y118.028 E0.02190
G1 X66.305 Y117.552 E0.02190
G1 X65.954 Y116.948 E0.02190
G1 X65.786 Y116.078 E0.02778
G1 X65.787 Y76.993 E1.22548
G1 X65.908 Y76.317 E0.02154
G1 X66.217 Y75.703 E0.02154
G1 X66.689 Y75.204 E0.02154
G1 X67.232 Y74.890 E0.01966
; printing object fancy-clock-FrontBody.stl id:0 copy 0
;WIPE_START
G1 F8640.000
G1 X68.158 Y74.692 E-0.21860
G1 X70.503 Y74.692 E-0.54140
;WIPE_END
G1 E-0.04000 F2100.000
G1 Z0.600 F10800.000
G1 X70.876 Y79.782
G1 Z0.200
G1 E0.80000 F2100.000
;TYPE:Perimeter
G1 F1200.000
G1 X169.450 Y79.782 E3.09072
G1 X169.450 Y113.356 E1.05269
G1 X70.876 Y113.356 E3.09072
M73 Q0 S60
G1 X70.876 Y79.842 E1.05081
G1 X71.253 Y80.159 F10800.000
;TYPE:External perimeter
G1 F1200.000
G1 X169.073 Y80.159 E3.06708
M73 P1 R61
M73 Q1 S60
G1 X169.073 Y112.979 E1.02905
G1 X71.253 Y112.979 E3.06708
G1 X71.253 Y80.219 E1.02717
G1 X71.091 Y79.793 F10800.000
;WIPE_START
G1 F8640.000
G1 X74.544 Y80.217 E-0.76000
;WIPE_END
G1 E-0.04000 F2100.000
G1 Z0.600 F10800.000
G1 X69.350 Y78.256
G1 Z0.200
G1 E0.80000 F2100.000
;TYPE:Perimeter
G1 F1200.000
G1 X170.976 Y78.256 E3.18641
G1 X170.976 Y114.882 E1.14838
G1 X69.350 Y114.882 E3.18641
G1 X69.350 Y78.316 E1.14650
M73 P1 R60
G1 X68.973 Y77.879 F10800.000
;TYPE:External perimeter
G1 F1200.000
G1 X171.353 Y77.879 E3.21005
G1 X171.353 Y115.259 E1.17202
G1 X68.973 Y115.259 E3.21005
M73 P2 R60
M73 Q2 S60
G1 X68.973 Y77.939 E1.17014
G1 X69.370 Y77.926 F10800.000
;WIPE_START
G1 F8640.000
G1 X72.264 Y77.937 E-0.76000
;WIPE_END
G1 E-0.04000 F2100.000
G1 Z0.600 F10800.000
G1 X170.863 Y79.133
G1 Z0.200
G1 E0.80000 F2100.000
;TYPE:Solid infill
;WIDTH:0.420796
G1 F1200.000
G1 X170.268 Y78.539 E0.02641
G1 X169.734 Y78.539 E0.01679
G1 X170.693 Y79.498 E0.04261
G1 X170.693 Y80.032 E0.01679
G1 X169.200 Y78.539 E0.06636
G1 X168.665 Y78.539 E0.01679
G1 X170.693 Y80.567 E0.09011
G1 X170.693 Y81.101 E0.01679
G1 X169.733 Y80.141 E0.04267
G1 X169.733 Y80.675 E0.01679
G1 X170.693 Y81.636 E0.04267
G1 X170.693 Y82.170 E0.01679
G1 X169.733 Y81.210 E0.04267
G1 X169.733 Y81.744 E0.01679
G1 X170.693 Y82.704 E0.04267
G1 X170.693 Y83.239 E0.01679
G1 X169.733 Y82.279 E0.04267
G1 X169.733 Y82.813 E0.01679
G1 X170.693 Y83.773 E0.04267
G1 X170.693 Y84.308 E0.01679
G1 X169.733 Y83.347 E0.04267
G1 X169.733 Y83.882 E0.01679
G1 X170.693 Y84.842 E0.04267
G1 X170.693 Y85.376 E0.01679
G1 X169.733 Y84.416 E0.04267
G1 X169.733 Y84.951 E0.01679
G1 X170.693 Y85.911 E0.04267
G1 X170.693 Y86.445 E0.01679
G1 X169.733 Y85.485 E0.04267
G1 X169.733 Y86.019 E0.01679
G1 X170.693 Y86.980 E0.04267
G1 X170.693 Y87.514 E0.01679
G1 X169.733 Y86.554 E0.04267
G1 X169.733 Y87.088 E0.01679
G1 X170.693 Y88.048 E0.04267
G1 X170.693 Y88.583 E0.01679
G1 X169.733 Y87.623 E0.04267
G1 X169.733 Y88.157 E0.01679
G1 X170.693 Y89.117 E0.04267
G1 X170.693 Y89.652 E0.01679
G1 X169.733 Y88.691 E0.04267
G1 X169.733 Y89.226 E0.01679
G1 X170.693 Y90.186 E0.04267
G1 X170.693 Y90.720 E0.01679
G1 X169.733 Y89.760 E0.04267
G1 X169.733 Y90.295 E0.01679
G1 X170.693 Y91.255 E0.04267
G1 X170.693 Y91.789 E0.01679
G1 X169.733 Y90.829 E0.04267
G1 X169.733 Y91.363 E0.01679
G1 X170.693 Y92.324 E0.04267
G1 X170.693 Y92.858 E0.01679
G1 X169.733 Y91.898 E0.04267
G1 X169.733 Y92.432 E0.01679
G1 X170.693 Y93.392 E0.04267
G1 X170.693 Y93.927 E0.01679
G1 X169.733 Y92.967 E0.04267
G1 X169.733 Y93.501 E0.01679
G1 X170.693 Y94.461 E0.04267
G1 X170.693 Y94.996 E0.01679
G1 X169.733 Y94.035 E0.04267
G1 X169.733 Y94.570 E0.01679
G1 X170.693 Y95.530 E0.04267
G1 X170.693 Y96.064 E0.01679
G1 X169.733 Y95.104 E0.04267
G1 X169.733 Y95.638 E0.01679
G1 X170.693 Y96.599 E0.04267
G1 X170.693 Y97.133 E0.01679
G1 X169.733 Y96.173 E0.04267
G1 X169.733 Y96.707 E0.01679
G1 X170.693 Y97.668 E0.04267
G1 X170.693 Y98.202 E0.01679
G1 X169.733 Y97.242 E0.04267
G1 X169.733 Y97.776 E0.01679
G1 X170.693 Y98.736 E0.04267
G1 X170.693 Y99.271 E0.01679
G1 X169.733 Y98.310 E0.04267
G1 X169.733 Y98.845 E0.01679
G1 X170.693 Y99.805 E0.04267
G1 X170.693 Y100.340 E0.01679
G1 X169.733 Y99.379 E0.04267
G1 X169.733 Y99.914 E0.01679
G1 X170.693 Y100.874 E0.04267
G1 X170.693 Y101.408 E0.01679
G1 X169.733 Y100.448 E0.04267
G1 X169.733 Y100.982 E0.01679
G1 X170.693 Y101.943 E0.04267
G1 X170.693 Y102.477 E0.01679
G1 X169.733 Y101.517 E0.04267
G1 X169.733 Y102.051 E0.01679
G1 X170.693 Y103.012 E0.04267
G1 X170.693 Y103.546 E0.01679
G1 X169.733 Y102.586 E0.04267
G1 X169.733 Y103.120 E0.01679
G1 X170.693 Y104.080 E0.04267
G1 X170.693 Y104.615 E0.01679
G1 X169.733 Y103.654 E0.04267
G1 X169.733 Y104.189 E0.01679
G1 X170.693 Y105.149 E0.04267
G1 X170.693 Y105.683 E0.01679
G1 X169.733 Y104.723 E0.04267
G1 X169.733 Y105.258 E0.01679
G1 X170.693 Y106.218 E0.04267
G1 X170.693 Y106.752 E0.01679
G1 X169.733 Y105.792 E0.04267
G1 X169.733 Y106.326 E0.01679
G1 X170.693 Y107.287 E0.04267
G1 X170.693 Y107.821 E0.01679
G1 X169.733 Y106.861 E0.04267
G1 X169.733 Y107.395 E0.01679
G1 X170.693 Y108.355 E0.04267
G1 X170.693 Y108.890 E0.01679
G1 X169.733 Y107.930 E0.04267
G1 X169.733 Y108.464 E0.01679
G1 X170.693 Y109.424 E0.04267
G1 X170.693 Y109.959 E0.01679
G1 X169.733 Y108.998 E0.04267
G1 X169.733 Y109.533 E0.01679
G1 X170.693 Y110.493 E0.04267
G1 X170.693 Y111.027 E0.01679
G1 X169.733 Y110.067 E0.04267
G1 X169.733 Y110.602 E0.01679
G1 X170.693 Y111.562 E0.04267
G1 X170.693 Y112.096 E0.01679
G1 X169.733 Y111.136 E0.04267
G1 X169.733 Y111.670 E0.01679
G1 X170.693 Y112.631 E0.04267
G1 X170.693 Y113.165 E0.01679
G1 X169.733 Y112.205 E0.04267
G1 X169.733 Y112.739 E0.01679
G1 X170.693 Y113.699 E0.04267
G1 X170.693 Y114.234 E0.01679
G1 X169.733 Y113.274 E0.04267
G1 X169.733 Y113.639 E0.01148
G1 X169.564 Y113.639 E0.00531
G1 X170.524 Y114.599 E0.04267
G1 X169.990 Y114.599 E0.01679
G1 X169.029 Y113.639 E0.04267
G1 X168.495 Y113.639 E0.01679
G1 X169.455 Y114.599 E0.04267
G1 X168.921 Y114.599 E0.01679
G1 X167.961 Y113.639 E0.04267
G1 X167.426 Y113.639 E0.01679
G1 X168.387 Y114.599 E0.04267
G1 X167.852 Y114.599 E0.01679
G1 X166.892 Y113.639 E0.04267
G1 X166.357 Y113.639 E0.01679
G1 X167.318 Y114.599 E0.04267
G1 X166.783 Y114.599 E0.01679
G1 X165.823 Y113.639 E0.04267
G1 X165.289 Y113.639 E0.01679
G1 X166.249 Y114.599 E0.04267
G1 X165.715 Y114.599 E0.01679
G1 X164.754 Y113.639 E0.04267
G1 X164.220 Y113.639 E0.01679
G1 X165.180 Y114.599 E0.04267
G1 X164.646 Y114.599 E0.01679
G1 X163.685 Y113.639 E0.04267
G1 X163.151 Y113.639 E0.01679
G1 X164.111 Y114.599 E0.04267
G1 X163.577 Y114.599 E0.01679
G1 X162.617 Y113.639 E0.04267
G1 X162.082 Y113.639 E0.01679
G1 X163.043 Y114.599 E0.04267
G1 X162.508 Y114.599 E0.01679
G1 X161.548 Y113.639 E0.04267
G1 X161.014 Y113.639 E0.01679
G1 X161.974 Y114.599 E0.04267
G1 X161.439 Y114.599 E0.01679
G1 X160.479 Y113.639 E0.04267
G1 X159.945 Y113.639 E0.01679
G1 X160.905 Y114.599 E0.04267
G1 X160.371 Y114.599 E0.01679
G1 X159.410 Y113.639 E0.04267
G1 X158.876 Y113.639 E0.01679
G1 X159.836 Y114.599 E0.04267
G1 X159.302 Y114.599 E0.01679
G1 X158.342 Y113.639 E0.04267
G1 X157.807 Y113.639 E0.01679
G1 X158.767 Y114.599 E0.04267
G1 X158.233 Y114.599 E0.01679
G1 X157.273 Y113.639 E0.04267
G1 X156.738 Y113.639 E0.01679
G1 X157.699 Y114.599 E0.04267
G1 X157.164 Y114.599 E0.01679
G1 X156.204 Y113.639 E0.04267
G1 X155.670 Y113.639 E0.01679
G1 X156.630 Y114.599 E0.04267
G1 X156.095 Y114.599 E0.01679
G1 X155.135 Y113.639 E0.04267
G1 X154.601 Y113.639 E0.01679
G1 X155.561 Y114.599 E0.04267
G1 X155.027 Y114.599 E0.01679
G1 X154.066 Y113.639 E0.04267
G1 X153.532 Y113.639 E0.01679
G1 X154.492 Y114.599 E0.04267
G1 X153.958 Y114.599 E0.01679
G1 X152.998 Y113.639 E0.04267
G1 X152.463 Y113.639 E0.01679
G1 X153.423 Y114.599 E0.04267
G1 X152.889 Y114.599 E0.01679
G1 X151.929 Y113.639 E0.04267
G1 X151.394 Y113.639 E0.01679
G1 X152.355 Y114.599 E0.04267
G1 X151.820 Y114.599 E0.01679
G1 X150.860 Y113.639 E0.04267
G1 X150.326 Y113.639 E0.01679
G1 X151.286 Y114.599 E0.04267
G1 X150.751 Y114.599 E0.01679
G1 X149.791 Y113.639 E0.04267
G1 X149.257 Y113.639 E0.01679
G1 X150.217 Y114.599 E0.04267
G1 X149.683 Y114.599 E0.01679
G1 X148.722 Y113.639 E0.04267
G1 X148.188 Y113.639 E0.01679
G1 X149.148 Y114.599 E0.04267
G1 X148.614 Y114.599 E0.01679
G1 X147.654 Y113.639 E0.04267
G1 X147.119 Y113.639 E0.01679
G1 X148.079 Y114.599 E0.04267
G1 X147.545 Y114.599 E0.01679
G1 X146.585 Y113.639 E0.04267
G1 X146.050 Y113.639 E0.01679
G1 X147.011 Y114.599 E0.04267
G1 X146.476 Y114.599 E0.01679
G1 X145.516 Y113.639 E0.04267
G1 X144.982 Y113.639 E0.01679
G1 X145.942 Y114.599 E0.04267
G1 X145.407 Y114.599 E0.01679
G1 X144.447 Y113.639 E0.04267
G1 X143.913 Y113.639 E0.01679
G1 X144.873 Y114.599 E0.04267
G1 X144.339 Y114.599 E0.01679
G1 X143.378 Y113.639 E0.04267
G1 X142.844 Y113.639 E0.01679
G1 X143.804 Y114.599 E0.04267
G1 X143.270 Y114.599 E0.01679
G1 X142.310 Y113.639 E0.04267
G1 X141.775 Y113.639 E0.01679
G1 X142.735 Y114.599 E0.04267
G1 X142.201 Y114.599 E0.01679
G1 X141.241 Y113.639 E0.04267
G1 X140.706 Y113.639 E0.01679
G1 X141.667 Y114.599 E0.04267
G1 X141.132 Y114.599 E0.01679
G1 X140.172 Y113.639 E0.04267
G1 X139.638 Y113.639 E0.01679
G1 X140.598 Y114.599 E0.04267
G1 X140.063 Y114.599 E0.01679
G1 X139.103 Y113.639 E0.04267
G1 X138.569 Y113.639 E0.01679
G1 X139.529 Y114.599 E0.04267
G1 X138.995 Y114.599 E0.01679
G1 X138.034 Y113.639 E0.04267
G1 X137.500 Y113.639 E0.01679
G1 X138.460 Y114.599 E0.04267
G1 X137.926 Y114.599 E0.01679
G1 X136.966 Y113.639 E0.04267
G1 X136.431 Y113.639 E0.01679
G1 X137.391 Y114.599 E0.04267
G1 X136.857 Y114.599 E0.01679
G1 X135.897 Y113.639 E0.04267
G1 X135.362 Y113.639 E0.01679
G1 X136.323 Y114.599 E0.04267
G1 X135.788 Y114.599 E0.01679
G1 X134.828 Y113.639 E0.04267
G1 X134.294 Y113.639 E0.01679
G1 X135.254 Y114.599 E0.04267
G1 X134.719 Y114.599 E0.01679
G1 X133.759 Y113.639 E0.04267
G1 X133.225 Y113.639 E0.01679
G1 X134.185 Y114.599 E0.04267
G1 X133.651 Y114.599 E0.01679
G1 X132.690 Y113.639 E0.04267
G1 X132.156 Y113.639 E0.01679
G1 X133.116 Y114.599 E0.04267
G1 X132.582 Y114.599 E0.01679
G1 X131.622 Y113.639 E0.04267
M73 Q2 S59
G1 X131.087 Y113.639 E0.01679
G1 X132.047 Y114.599 E0.04267
G1 X131.513 Y114.599 E0.01679
G1 X130.553 Y113.639 E0.04267
G1 X130.018 Y113.639 E0.01679
G1 X130.979 Y114.599 E0.04267
G1 X130.444 Y114.599 E0.01679
G1 X129.484 Y113.639 E0.04267
G1 X128.950 Y113.639 E0.01679
G1 X129.910 Y114.599 E0.04267
G1 X129.376 Y114.599 E0.01679
G1 X128.415 Y113.639 E0.04267
G1 X127.881 Y113.639 E0.01679
G1 X128.841 Y114.599 E0.04267
G1 X128.307 Y114.599 E0.01679
G1 X127.346 Y113.639 E0.04267
G1 X126.812 Y113.639 E0.01679
G1 X127.772 Y114.599 E0.04267
G1 X127.238 Y114.599 E0.01679
G1 X126.278 Y113.639 E0.04267
G1 X125.743 Y113.639 E0.01679
G1 X126.704 Y114.599 E0.04267
G1 X126.169 Y114.599 E0.01679
G1 X125.209 Y113.639 E0.04267
G1 X124.674 Y113.639 E0.01679
G1 X125.635 Y114.599 E0.04267
G1 X125.100 Y114.599 E0.01679
G1 X124.140 Y113.639 E0.04267
G1 X123.606 Y113.639 E0.01679
G1 X124.566 Y114.599 E0.04267
G1 X124.032 Y114.599 E0.01679
G1 X123.071 Y113.639 E0.04267
G1 X122.537 Y113.639 E0.01679
G1 X123.497 Y114.599 E0.04267
G1 X122.963 Y114.599 E0.01679
G1 X122.002 Y113.639 E0.04267
G1 X121.468 Y113.639 E0.01679
G1 X122.428 Y114.599 E0.04267
G1 X121.894 Y114.599 E0.01679
G1 X120.934 Y113.639 E0.04267
G1 X120.399 Y113.639 E0.01679
G1 X121.360 Y114.599 E0.04267
G1 X120.825 Y114.599 E0.01679
G1 X119.865 Y113.639 E0.04267
G1 X119.331 Y113.639 E0.01679
G1 X120.291 Y114.599 E0.04267
G1 X119.756 Y114.599 E0.01679
G1 X118.796 Y113.639 E0.04267
G1 X118.262 Y113.639 E0.01679
G1 X119.222 Y114.599 E0.04267
G1 X118.688 Y114.599 E0.01679
G1 X117.727 Y113.639 E0.04267
G1 X117.193 Y113.639 E0.01679
G1 X118.153 Y114.599 E0.04267
G1 X117.619 Y114.599 E0.01679
G1 X116.659 Y113.639 E0.04267
G1 X116.124 Y113.639 E0.01679
G1 X117.084 Y114.599 E0.04267
G1 X116.550 Y114.599 E0.01679
G1 X115.590 Y113.639 E0.04267
G1 X115.055 Y113.639 E0.01679
G1 X116.016 Y114.599 E0.04267
G1 X115.481 Y114.599 E0.01679
G1 X114.521 Y113.639 E0.04267
G1 X113.987 Y113.639 E0.01679
G1 X114.947 Y114.599 E0.04267
G1 X114.412 Y114.599 E0.01679
G1 X113.452 Y113.639 E0.04267
G1 X112.918 Y113.639 E0.01679
G1 X113.878 Y114.599 E0.04267
G1 X113.344 Y114.599 E0.01679
G1 X112.383 Y113.639 E0.04267
G1 X111.849 Y113.639 E0.01679
G1 X112.809 Y114.599 E0.04267
G1 X112.275 Y114.599 E0.01679
G1 X111.315 Y113.639 E0.04267
G1 X110.780 Y113.639 E0.01679
G1 X111.740 Y114.599 E0.04267
G1 X111.206 Y114.599 E0.01679
G1 X110.246 Y113.639 E0.04267
G1 X109.711 Y113.639 E0.01679
G1 X110.672 Y114.599 E0.04267
G1 X110.137 Y114.599 E0.01679
G1 X109.177 Y113.639 E0.04267
G1 X108.643 Y113.639 E0.01679
G1 X109.603 Y114.599 E0.04267
G1 X109.068 Y114.599 E0.01679
G1 X108.108 Y113.639 E0.04267
G1 X107.574 Y113.639 E0.01679
G1 X108.534 Y114.599 E0.04267
G1 X108.000 Y114.599 E0.01679
G1 X107.039 Y113.639 E0.04267
G1 X106.505 Y113.639 E0.01679
G1 X107.465 Y114.599 E0.04267
G1 X106.931 Y114.599 E0.01679
G1 X105.971 Y113.639 E0.04267
G1 X105.436 Y113.639 E0.01679
G1 X106.396 Y114.599 E0.04267
G1 X105.862 Y114.599 E0.01679
G1 X104.902 Y113.639 E0.04267
G1 X104.367 Y113.639 E0.01679
G1 X105.328 Y114.599 E0.04267
G1 X104.793 Y114.599 E0.01679
G1 X103.833 Y113.639 E0.04267
G1 X103.299 Y113.639 E0.01679
G1 X104.259 Y114.599 E0.04267
G1 X103.724 Y114.599 E0.01679
G1 X102.764 Y113.639 E0.04267
G1 X102.230 Y113.639 E0.01679
G1 X103.190 Y114.599 E0.04267
G1 X102.656 Y114.599 E0.01679
G1 X101.695 Y113.639 E0.04267
G1 X101.161 Y113.639 E0.01679
G1 X102.121 Y114.599 E0.04267
G1 X101.587 Y114.599 E0.01679
G1 X100.627 Y113.639 E0.04267
G1 X100.092 Y113.639 E0.01679
G1 X101.052 Y114.599 E0.04267
G1 X100.518 Y114.599 E0.01679
G1 X99.558 Y113.639 E0.04267
G1 X99.023 Y113.639 E0.01679
G1 X99.984 Y114.599 E0.04267
G1 X99.449 Y114.599 E0.01679
G1 X98.489 Y113.639 E0.04267
G1 X97.955 Y113.639 E0.01679
G1 X98.915 Y114.599 E0.04267
G1 X98.380 Y114.599 E0.01679
G1 X97.420 Y113.639 E0.04267
G1 X96.886 Y113.639 E0.01679
G1 X97.846 Y114.599 E0.04267
G1 X97.312 Y114.599 E0.01679
