; generated by PrusaSlicer 2.3.3 on 2022-04-03 at 14:16:02 UTC

; 

; external perimeters extrusion width = 0.45mm
; perimeters extrusion width = 0.45mm
; infill extrusion width = 0.45mm
; solid infill extrusion width = 0.45mm
; top infill extrusion width = 0.40mm
; support material extrusion width = 0.35mm
; first layer extrusion width = 0.42mm

M73 P0 R81
M73 Q0 S82
M201 X1000 Y1000 Z200 E5000 ; sets maximum accelerations, mm/sec^2
M203 X200 Y200 Z12 E120 ; sets maximum feedrates, mm/sec
M204 P1250 R1250 T1250 ; sets acceleration (P, T) and retract acceleration (R), mm/sec^2
M205 X8.00 Y8.00 Z0.40 E4.50 ; sets the jerk limits, mm/sec
M205 S0 T0 ; sets the minimum extruding and travel feed rate, mm/sec
M107
;TYPE:Custom
M862.3 P "MK3S" ; printer model check
M862.1 P0.4 ; nozzle diameter check
M115 U3.9.3 ; tell printer latest fw version
G90 ; use absolute coordinates
M83 ; extruder relative mode
M104 S215 ; set extruder temp
M140 S60 ; set bed temp
M190 S60 ; wait for bed temp
M109 S215 ; wait for extruder temp
G28 W ; home all without mesh bed level
G80 ; mesh bed leveling
G1 Y-3.0 F1000.0 ; go outside print area
G92 E0.0
G1 X60.0 E9.0 F1000.0 ; intro line
G1 X100.0 E12.5 F1000.0 ; intro line
G92 E0.0
M221 S95

; Don't change E values below. Excessive value can damage the printer.

M907 E538 ; set extruder motor current
G21 ; set units to millimeters
G90 ; use absolute coordinates
M83 ; use relative distances for extrusion
M900 K0.05 ; Filament gcode LA 1.5
M900 K30 ; Filament gcode LA 1.0
;LAYER_CHANGE
;Z:0.2
;HEIGHT:0.2
;BEFORE_LAYER_CHANGE
G92 E0.0
;0.2


G1 E-0.80000 F2100.000
G1 Z0.400 F10800.000
;AFTER_LAYER_CHANGE
;0.2
G1 X70.295 Y82.844
G1 Z0.200
G1 E0.80000 F2100.000
M204 S1000
;TYPE:Skirt
;WIDTH:0.42
G1 F1200.000
G1 X70.982 Y82.352 E0.02649
G1 X71.793 Y82.132 E0.02637
G1 X117.464 Y78.725 E1.43594
G1 X132.690 Y78.899 E0.47744
G1 X178.187 Y82.130 E1.43013
G1 X178.818 Y82.268 E0.02024
G1 X179.385 Y82.568 E0.02012
G1 X179.992 Y83.203 E0.02755
G1 X180.327 Y84.016 E0.02755
G1 X183.178 Y100.848 E0.53528
G1 X183.184 Y124.247 E0.73366
G1 X183.064 Y124.954 E0.02249
G1 X182.738 Y125.593 E0.02249
G1 X182.337 Y126.025 E0.01846
G1 X181.847 Y126.343 E0.01835
G1 X178.887 Y127.705 E0.10216
G1 X178.033 Y127.877 E0.02731
G1 X71.985 Y127.877 E3.32506
G1 X71.098 Y127.699 E0.02837
G1 X70.344 Y127.205 E0.02825
G1 X69.812 Y126.428 E0.02954
G1 X69.623 Y125.505 E0.02954
G1 X69.623 Y84.462 E1.28687
G1 X69.805 Y83.587 E0.02802
G1 X70.262 Y82.894 E0.02602
; printing object fancy-clock-BackBody.stl id:0 copy 0
;WIPE_START
G1 F8640.000
G1 X70.982 Y82.352 E-0.20808
G1 X71.793 Y82.132 E-0.19422
G1 X73.338 Y82.017 E-0.35770
;WIPE_END
G1 E-0.04000 F2100.000
G1 Z0.600 F10800.000
G1 X117.458 Y81.102
G1 Z0.200
G1 E0.80000 F2100.000
;TYPE:Support material
G1 F1200.000
G1 X117.458 Y84.086 E0.09359
G1 X118.213 Y84.086 E0.02365
G1 X118.213 Y81.271 E0.08827
G1 X118.967 Y81.271 E0.02365
G1 X118.967 Y84.086 E0.08827
G1 X119.721 Y84.086 E0.02365
G1 X119.721 Y81.271 E0.08827
G1 X120.475 Y81.271 E0.02365
G1 X120.475 Y89.508 E0.25826
G1 X121.229 Y89.508 E0.02365
G1 X121.229 Y81.271 E0.25826
G1 X121.983 Y81.271 E0.02365
G1 X121.983 Y89.508 E0.25826
G1 X122.738 Y89.508 E0.02365
G1 X122.738 Y81.271 E0.25826
G1 X123.492 Y81.271 E0.02365
G1 X123.492 Y89.508 E0.25826
G1 X124.246 Y89.508 E0.02365
G1 X124.246 Y81.271 E0.25826
G1 X125.000 Y81.271 E0.02365
G1 X125.000 Y89.508 E0.25826
G1 X125.754 Y89.508 E0.02365
G1 X125.754 Y81.271 E0.25826
G1 X126.508 Y81.271 E0.02365
G1 X126.508 Y89.508 E0.25826
G1 X127.262 Y89.508 E0.02365
G1 X127.262 Y81.271 E0.25826
G1 X128.017 Y81.271 E0.02365
G1 X128.017 Y89.508 E0.25826
G1 X128.771 Y89.508 E0.02365
G1 X128.771 Y81.271 E0.25826
G1 X129.525 Y81.271 E0.02365
G1 X129.525 Y89.508 E0.25826
G1 X129.586 Y89.508 E0.00193
G1 X129.586 Y84.329 E0.16240
G1 X129.829 Y84.086 E0.01074
G1 X130.279 Y84.086 E0.01412
G1 X130.279 Y81.271 E0.08827
G1 X131.033 Y81.271 E0.02365
G1 X131.033 Y84.086 E0.08827
G1 X131.787 Y84.086 E0.02365
G1 X131.787 Y81.271 E0.08827
G1 X132.542 Y81.271 E0.02365
G1 X132.542 Y84.256 E0.09359
;WIPE_START
G1 F8640.000
G1 X132.542 Y81.271 E-0.68920
G1 X132.235 Y81.271 E-0.07080
;WIPE_END
G1 E-0.04000 F2100.000
G1 Z0.600 F10800.000
G1 X173.266 Y107.744
G1 Z0.200
G1 E0.80000 F2100.000
G1 F1200.000
G1 X173.266 Y117.086 E0.29293
G1 X174.020 Y117.086 E0.02365
G1 X174.020 Y107.914 E0.28761
G1 X174.774 Y107.914 E0.02365
G1 X174.774 Y117.086 E0.28761
G1 X175.529 Y117.086 E0.02365
G1 X175.529 Y107.914 E0.28761
G1 X176.283 Y107.914 E0.02365
G1 X176.283 Y117.086 E0.28761
G1 X177.037 Y117.086 E0.02365
G1 X177.037 Y107.914 E0.28761
G1 X177.791 Y107.914 E0.02365
G1 X177.791 Y117.086 E0.28761
G1 X178.171 Y117.086 E0.01192
G1 X178.414 Y117.329 E0.01074
G1 X178.414 Y121.571 E0.13302
G1 X178.545 Y121.703 E0.00584
G1 X178.545 Y103.297 E0.57710
G1 X179.299 Y102.543 E0.03344
G1 X179.299 Y122.457 E0.62440
G1 X180.054 Y123.211 E0.03344
G1 X180.054 Y101.789 E0.67169
G1 X180.808 Y101.035 E0.03344
G1 X180.808 Y124.205 E0.72651
;WIPE_START
G1 F8640.000
G1 X180.808 Y120.914 E-0.76000
;WIPE_END
G1 E-0.04000 F2100.000
G1 Z0.600 F10800.000
G1 X83.298 Y105.484
G1 Z0.200
G1 E0.80000 F2100.000
;TYPE:Perimeter
G1 F1200.000
G1 X83.147 Y106.019 E0.01742
G1 X82.894 Y106.514 E0.01742
G1 X82.552 Y106.942 E0.01719
G1 X82.228 Y107.228 E0.01353
G1 X81.761 Y107.514 E0.01719
G1 X81.238 Y107.704 E0.01742
G1 X80.689 Y107.787 E0.01742
G1 X80.134 Y107.759 E0.01742
G1 X79.596 Y107.622 E0.01742
G1 X79.095 Y107.381 E0.01742
G1 X78.652 Y107.045 E0.01742
G1 X78.285 Y106.629 E0.01742
G1 X78.007 Y106.148 E0.01742
G1 X77.830 Y105.621 E0.01742
G1 X77.761 Y105.070 E0.01742
G1 X77.802 Y104.516 E0.01742
G1 X77.953 Y103.981 E0.01742
G1 X78.206 Y103.486 E0.01742
G1 X78.553 Y103.052 E0.01742
G1 X78.978 Y102.695 E0.01742
G1 X79.466 Y102.429 E0.01742
G1 X79.991 Y102.267 E0.01722
G1 X80.430 Y102.213 E0.01386
G1 X80.966 Y102.241 E0.01685
G1 X81.504 Y102.378 E0.01740
G1 X82.005 Y102.619 E0.01742
G1 X82.448 Y102.955 E0.01742
G1 X82.815 Y103.371 E0.01742
G1 X83.093 Y103.852 E0.01742
G1 X83.270 Y104.379 E0.01742
G1 X83.339 Y104.930 E0.01742
G1 X83.302 Y105.425 E0.01554
G1 X82.926 Y105.396 F10800.000
;TYPE:External perimeter
G1 F1200.000
G1 X82.794 Y105.881 E0.01574
G1 X82.575 Y106.308 E0.01505
G1 X82.278 Y106.681 E0.01497
G1 X82.004 Y106.923 E0.01146
G1 X81.596 Y107.172 E0.01497
G1 X81.145 Y107.337 E0.01505
G1 X80.670 Y107.408 E0.01505
G1 X80.191 Y107.384 E0.01505
G1 X79.725 Y107.266 E0.01505
G1 X79.293 Y107.057 E0.01505
G1 X78.910 Y106.767 E0.01505
G1 X78.592 Y106.407 E0.01505
G1 X78.352 Y105.992 E0.01505
G1 X78.199 Y105.537 E0.01505
G1 X78.140 Y105.060 E0.01505
G1 X78.176 Y104.581 E0.01505
G1 X78.306 Y104.119 E0.01505
G1 X78.525 Y103.692 E0.01505
G1 X78.824 Y103.316 E0.01505
G1 X79.192 Y103.008 E0.01505
G1 X79.613 Y102.778 E0.01505
G1 X80.070 Y102.637 E0.01498
G1 X80.443 Y102.592 E0.01178
G1 X80.910 Y102.616 E0.01465
G1 X81.375 Y102.734 E0.01505
G1 X81.807 Y102.943 E0.01505
G1 X82.190 Y103.233 E0.01505
G1 X82.508 Y103.593 E0.01505
G1 X82.748 Y104.008 E0.01505
G1 X82.901 Y104.463 E0.01505
G1 X82.960 Y104.940 E0.01505
G1 X82.931 Y105.337 E0.01247
G1 X83.234 Y105.652 F10800.000
;WIPE_START
G1 F8640.000
G1 X82.794 Y105.881 E-0.12954
G1 X82.575 Y106.308 E-0.11087
G1 X82.278 Y106.681 E-0.11025
G1 X82.004 Y106.923 E-0.08441
G1 X81.596 Y107.172 E-0.11026
G1 X81.145 Y107.337 E-0.11086
G1 X80.700 Y107.404 E-0.10381
;WIPE_END
G1 E-0.04000 F2100.000
G1 Z0.600 F10800.000
G1 X81.504 Y110.178
G1 Z0.200
G1 E0.80000 F2100.000
;TYPE:Perimeter
G1 F1200.000
G1 X82.005 Y110.419 E0.01742
G1 X82.448 Y110.755 E0.01742
G1 X82.815 Y111.171 E0.01742
G1 X83.093 Y111.652 E0.01742
G1 X83.270 Y112.179 E0.01742
G1 X83.339 Y112.730 E0.01742
G1 X83.298 Y113.284 E0.01742
G1 X83.147 Y113.819 E0.01742
G1 X82.894 Y114.314 E0.01742
G1 X82.547 Y114.748 E0.01742
G1 X82.127 Y115.101 E0.01722
G1 X81.743 Y115.321 E0.01386
G1 X81.238 Y115.504 E0.01685
G1 X80.689 Y115.587 E0.01740
G1 X80.134 Y115.559 E0.01742
G1 X79.596 Y115.422 E0.01742
G1 X79.095 Y115.181 E0.01742
G1 X78.652 Y114.845 E0.01742
G1 X78.285 Y114.429 E0.01742
G1 X78.007 Y113.948 E0.01742
G1 X77.830 Y113.421 E0.01742
G1 X77.761 Y112.870 E0.01742
G1 X77.802 Y112.316 E0.01742
G1 X77.953 Y111.781 E0.01742
G1 X78.206 Y111.286 E0.01742
G1 X78.553 Y110.852 E0.01742
G1 X78.978 Y110.495 E0.01742
G1 X79.466 Y110.229 E0.01742
G1 X79.991 Y110.067 E0.01722
G1 X80.430 Y110.013 E0.01386
G1 X80.966 Y110.041 E0.01685
G1 X81.446 Y110.163 E0.01552
G1 X81.353 Y110.529 F10800.000
;TYPE:External perimeter
G1 F1200.000
G1 X81.807 Y110.743 E0.01574
G1 X82.190 Y111.033 E0.01505
G1 X82.508 Y111.393 E0.01505
G1 X82.748 Y111.808 E0.01505
G1 X82.901 Y112.263 E0.01505
G1 X82.960 Y112.740 E0.01505
G1 X82.924 Y113.219 E0.01505
G1 X82.794 Y113.681 E0.01505
G1 X82.575 Y114.108 E0.01505
G1 X82.276 Y114.484 E0.01505
G1 X81.910 Y114.791 E0.01498
G1 X81.584 Y114.978 E0.01178
G1 X81.145 Y115.137 E0.01465
G1 X80.670 Y115.208 E0.01505
G1 X80.191 Y115.184 E0.01505
G1 X79.725 Y115.066 E0.01505
G1 X79.293 Y114.857 E0.01505
G1 X78.910 Y114.567 E0.01505
G1 X78.592 Y114.207 E0.01505
G1 X78.352 Y113.792 E0.01505
G1 X78.199 Y113.337 E0.01505
G1 X78.140 Y112.860 E0.01505
G1 X78.176 Y112.381 E0.01505
G1 X78.306 Y111.919 E0.01505
G1 X78.525 Y111.492 E0.01505
G1 X78.824 Y111.116 E0.01505
G1 X79.192 Y110.808 E0.01505
G1 X79.613 Y110.578 E0.01505
G1 X80.070 Y110.437 E0.01498
G1 X80.443 Y110.392 E0.01178
G1 X80.910 Y110.416 E0.01465
G1 X81.295 Y110.514 E0.01247
G1 X81.658 Y110.270 F10800.000
;WIPE_START
G1 F8640.000
G1 X81.807 Y110.743 E-0.12954
G1 X82.190 Y111.033 E-0.11087
G1 X82.508 Y111.393 E-0.11087
G1 X82.748 Y111.808 E-0.11086
G1 X82.901 Y112.263 E-0.11087
G1 X82.960 Y112.740 E-0.11087
G1 X82.936 Y113.069 E-0.07613
;WIPE_END
G1 E-0.04000 F2100.000
G1 Z0.600 F10800.000
G1 X80.689 Y99.987
G1 Z0.200
G1 E0.80000 F2100.000
;TYPE:Perimeter
G1 F1200.000
G1 X80.134 Y99.959 E0.01742
G1 X79.596 Y99.822 E0.01742
G1 X79.095 Y99.581 E0.01742
G1 X78.652 Y99.245 E0.01742
G1 X78.285 Y98.829 E0.01742
G1 X78.007 Y98.348 E0.01742
G1 X77.830 Y97.821 E0.01742
G1 X77.761 Y97.270 E0.01742
G1 X77.802 Y96.716 E0.01742
G1 X77.953 Y96.181 E0.01742
G1 X78.206 Y95.686 E0.01742
G1 X78.553 Y95.252 E0.01742
G1 X78.978 Y94.895 E0.01742
G1 X79.466 Y94.629 E0.01742
G1 X79.991 Y94.467 E0.01722
G1 X80.430 Y94.413 E0.01386
G1 X80.966 Y94.441 E0.01685
G1 X81.504 Y94.578 E0.01740
G1 X82.005 Y94.819 E0.01742
G1 X82.448 Y95.155 E0.01742
G1 X82.815 Y95.571 E0.01742
G1 X83.093 Y96.052 E0.01742
G1 X83.270 Y96.579 E0.01742
G1 X83.339 Y97.130 E0.01742
G1 X83.298 Y97.684 E0.01742
G1 X83.147 Y98.219 E0.01742
G1 X82.894 Y98.714 E0.01742
G1 X82.547 Y99.148 E0.01742
G1 X82.127 Y99.501 E0.01722
G1 X81.743 Y99.721 E0.01386
G1 X81.238 Y99.904 E0.01685
G1 X80.748 Y99.978 E0.01552
G1 X80.692 Y99.605 F10800.000
;TYPE:External perimeter
G1 F1200.000
G1 X80.191 Y99.584 E0.01574
G1 X79.725 Y99.466 E0.01505
G1 X79.293 Y99.257 E0.01505
G1 X78.910 Y98.967 E0.01505
G1 X78.592 Y98.607 E0.01505
G1 X78.352 Y98.192 E0.01505
G1 X78.199 Y97.737 E0.01505
G1 X78.140 Y97.260 E0.01505
G1 X78.176 Y96.781 E0.01505
G1 X78.306 Y96.319 E0.01505
G1 X78.525 Y95.892 E0.01505
G1 X78.824 Y95.516 E0.01505
G1 X79.192 Y95.208 E0.01505
G1 X79.613 Y94.978 E0.01505
G1 X80.070 Y94.837 E0.01498
G1 X80.443 Y94.792 E0.01178
G1 X80.910 Y94.816 E0.01465
G1 X81.375 Y94.934 E0.01505
G1 X81.807 Y95.143 E0.01505
G1 X82.190 Y95.433 E0.01505
G1 X82.508 Y95.793 E0.01505
G1 X82.748 Y96.208 E0.01505
G1 X82.901 Y96.663 E0.01505
G1 X82.960 Y97.140 E0.01505
G1 X82.924 Y97.619 E0.01505
G1 X82.794 Y98.081 E0.01505
G1 X82.575 Y98.508 E0.01505
G1 X82.276 Y98.884 E0.01505
G1 X81.910 Y99.191 E0.01498
G1 X81.584 Y99.378 E0.01178
G1 X81.145 Y99.537 E0.01465
G1 X80.752 Y99.596 E0.01247
G1 X80.512 Y99.962 F10800.000
;WIPE_START
G1 F8640.000
G1 X80.191 Y99.584 E-0.12954
G1 X79.725 Y99.466 E-0.11086
G1 X79.293 Y99.257 E-0.11087
G1 X78.910 Y98.967 E-0.11086
G1 X78.592 Y98.607 E-0.11087
G1 X78.352 Y98.192 E-0.11086
G1 X78.247 Y97.879 E-0.07613
;WIPE_END
G1 E-0.04000 F2100.000
G1 Z0.600 F10800.000
G1 X72.787 Y85.287
G1 Z0.200
G1 E0.80000 F2100.000
;TYPE:Perimeter
G1 F1200.000
G1 X119.213 Y85.287 E1.45565
M73 P1 R81
M73 Q1 S81
G1 X119.213 Y92.531 E0.22714
G1 X119.263 Y93.037 E0.01594
G1 X119.374 Y93.439 E0.01309
G1 X119.543 Y93.821 E0.01309
G1 X119.839 Y94.264 E0.01669
G1 X120.132 Y94.572 E0.01332
G1 X120.560 Y94.889 E0.01669
G1 X120.939 Y95.080 E0.01332
G1 X121.456 Y95.236 E0.01692
G1 X121.969 Y95.287 E0.01617
G1 X128.144 Y95.284 E0.19363
G1 X128.544 Y95.235 E0.01263
G1 X128.939 Y95.126 E0.01286
G1 X129.315 Y94.959 E0.01286
G1 X129.667 Y94.736 E0.01309
G1 X130.067 Y94.374 E0.01692
G1 X130.389 Y93.940 E0.01692
G1 X130.573 Y93.574 E0.01287
G1 X130.673 Y93.296 E0.00926
G1 X130.776 Y92.774 E0.01668
G1 X130.786 Y85.287 E0.23474
G1 X177.213 Y85.287 E1.45567
G1 X177.213 Y106.713 E0.67180
G1 X168.970 Y106.718 E0.25845
G1 X169.798 Y106.563 E0.02642
G1 X170.493 Y106.348 E0.02278
G1 X171.162 Y106.066 E0.02278
G1 X171.800 Y105.719 E0.02278
G1 X172.400 Y105.309 E0.02278
G1 X172.957 Y104.842 E0.02278
G1 X173.459 Y104.328 E0.02255
G1 X173.702 Y104.038 E0.01185
G1 X174.122 Y103.454 E0.02255
G1 X174.485 Y102.825 E0.02278
G1 X174.784 Y102.163 E0.02278
G1 X175.015 Y101.474 E0.02278
G1 X175.177 Y100.766 E0.02278
G1 X175.267 Y100.045 E0.02278
G1 X175.286 Y99.318 E0.02278
G1 X175.231 Y98.594 E0.02278
G1 X175.105 Y97.878 E0.02278
G1 X174.908 Y97.179 E0.02278
G1 X174.643 Y96.503 E0.02278
G1 X174.311 Y95.856 E0.02278
G1 X173.917 Y95.246 E0.02278
G1 X173.464 Y94.678 E0.02278
G1 X172.957 Y94.158 E0.02278
G1 X172.400 Y93.691 E0.02278
G1 X171.800 Y93.281 E0.02278
G1 X171.162 Y92.934 E0.02278
G1 X170.493 Y92.652 E0.02278
G1 X169.798 Y92.437 E0.02278
G1 X169.086 Y92.294 E0.02278
G1 X168.364 Y92.221 E0.02277
G1 X167.666 Y92.221 E0.02186
G1 X167.268 Y92.249 E0.01252
M73 P1 R80
G1 X166.556 Y92.357 E0.02258
G1 X165.852 Y92.536 E0.02278
G1 X165.169 Y92.784 E0.02278
G1 X164.515 Y93.100 E0.02278
G1 X163.895 Y93.478 E0.02278
G1 X163.315 Y93.917 E0.02278
G1 X162.783 Y94.411 E0.02278
G1 X162.302 Y94.956 E0.02278
G1 X161.878 Y95.546 E0.02278
G1 X161.515 Y96.175 E0.02278
G1 X161.216 Y96.837 E0.02278
G1 X160.985 Y97.526 E0.02278
G1 X160.823 Y98.234 E0.02278
G1 X160.733 Y98.955 E0.02278
G1 X160.714 Y99.682 E0.02278
G1 X160.769 Y100.406 E0.02278
G1 X160.895 Y101.122 E0.02278
G1 X161.092 Y101.821 E0.02278
G1 X161.357 Y102.497 E0.02278
G1 X161.689 Y103.144 E0.02278
G1 X162.083 Y103.754 E0.02278
G1 X162.536 Y104.322 E0.02278
G1 X163.043 Y104.842 E0.02278
G1 X163.600 Y105.309 E0.02278
G1 X164.200 Y105.719 E0.02278
G1 X164.838 Y106.066 E0.02278
G1 X165.507 Y106.348 E0.02278
G1 X166.202 Y106.563 E0.02278
G1 X167.041 Y106.719 E0.02678
G1 X159.726 Y106.723 E0.22935
G1 X159.191 Y106.830 E0.01713
G1 X158.702 Y107.032 E0.01659
G1 X158.333 Y107.263 E0.01364
G1 X157.938 Y107.621 E0.01672
G1 X157.677 Y107.956 E0.01332
G1 X157.422 Y108.432 E0.01692
G1 X157.264 Y108.956 E0.01714
G1 X157.213 Y109.469 E0.01616
G1 X157.213 Y115.524 E0.18987
G1 X157.241 Y115.902 E0.01188
G1 X157.297 Y116.184 E0.00903
G1 X157.424 Y116.567 E0.01264
G1 X157.605 Y116.927 E0.01264
G1 X157.765 Y117.167 E0.00903
G1 X158.028 Y117.472 E0.01264
G1 X158.339 Y117.740 E0.01286
G1 X158.679 Y117.956 E0.01264
G1 X158.946 Y118.082 E0.00926
G1 X159.456 Y118.236 E0.01669
G1 X159.969 Y118.287 E0.01616
G1 X177.213 Y118.287 E0.54068
G1 X177.213 Y124.713 E0.20148
G1 X72.787 Y124.713 E3.27420
G1 X72.787 Y85.347 E1.23429
;WIPE_START
G1 F8640.000
G1 X76.079 Y85.343 E-0.76000
;WIPE_END
G1 E-0.04000 F2100.000
G1 Z0.600 F10800.000
G1 X161.195 Y98.300
G1 Z0.200
G1 E0.80000 F2100.000
;TYPE:External perimeter
G1 F1200.000
G1 X161.348 Y97.628 E0.02160
G1 X161.567 Y96.975 E0.02160
G1 X161.851 Y96.347 E0.02160
G1 X162.195 Y95.751 E0.02160
G1 X162.597 Y95.191 E0.02160
G1 X163.053 Y94.675 E0.02160
G1 X163.558 Y94.206 E0.02160
G1 X164.107 Y93.790 E0.02160
G1 X164.695 Y93.431 E0.02160
G1 X165.316 Y93.132 E0.02160
G1 X165.963 Y92.897 E0.02160
G1 X166.631 Y92.727 E0.02160
G1 X167.310 Y92.624 E0.02153
G1 X167.680 Y92.598 E0.01163
